X:1
T:Title
%%score { 1 | 2 }
L:1/8
M:3/4
K:Eb
V:1 treble nm="Grand Piano"
V:2 bass 
V:1
 z2 z2[Q:1/4=100] EG | [GB]3 [GB] [Ac][Ae] | [GB]4 [EG][FA] | [GB]3 G EG |[M:2/4] [DF]4 | %5
[M:1/4] EG |[M:3/4] B3 B [Ec][Ee] | [EB]4 [FA]G | F3 d cd |[M:2/4] [DB]4 |[M:1/4] [EG][EB] | %11
[M:3/4] [Ge]3 [EG] [EA]B | c4 Ac | B3 G cB |[M:2/4] F4 |[M:1/4] [B,DG][A,DF] | %16
[M:3/4] [G,E]3 [B,EG] [A,EA][EB] | [Ec]4 [CEA][Ec] | [EB]3 [B,EG] [G,E][A,DF] |[M:2/4] [G,E]4 |] %20
V:2
 z2 z2 [E,G,][E,B,E] | [E,E]3 [E,E] [E,E][E,C] | [E,E]4 [E,B,][E,B,] | %3
 [E,E]3 [E,B,E] [G,B,][E,B,E] |[M:2/4] [B,,B,]4 |[M:1/4] [E,G,][E,B,E] | %6
[M:3/4] [E,G,E]3 [E,G,E] [A,,A,][C,A,] | [E,G,]4 [D,B,][E,B,E] | %8
 [F,B,D]3 [F,B,F] [F,,F,=A,E][F,,F,A,F] |[M:2/4] [B,,B,]4 |[M:1/4] [E,B,][E,G,] | %11
[M:3/4] [E,B,]3 [_D,B,] [C,A,][E,G,E] | [A,E]4 [A,CE][A,E] | [E,G,E]3 [E,B,E] [E,A,E][G,B,E] | %14
[M:2/4] [B,D]4 |[M:1/4] B,,B,, |[M:3/4] E,3 _D, C,[B,,G,] | [A,,A,]4 A,,[A,,A,] | %18
 [B,,G,]3 B,, B,,B,, |[M:2/4] E,4 |] %20

